X:1
T:Title
%%score ( 1 2 ) { 3 | 4 }
L:1/8
Q:1/4=112
M:9/8
K:Ab
V:1 treble nm="Grand Piano, Soprano"
V:2 treble 
V:3 bass nm="Choir Pad, Seeds of Promise"
V:4 bass 
V:1
 E3 EF[CG] [CA]3 | [EB]3 [Ec]2 [EA] [DF]3 | [FB]3 [EB]2 [EG] [DF]3 | [DG]3 [CA]3 [EG]3 | %4
w: By~Frederick~Augustus~Fillmore * * * *||||
 [DF]3 EF[CG] [CA]3 | [EB]3 [Ec]2 [EA] [DF]3 | [FB]3 [EA]2 [EG] [DF]3 | %7
w: |||
[M:12/8] [DG]3 [CA]3- [CA]3/2 z/ E EGB | d6- d3/2 z/ z z3 | E3 z2 D C2 E EGB | d6- d2- d/ z/ e3 | %11
w: ||||
 c6- c3/2 z/ z z3 | z2 D D2 D D2 d c2 c | z3 z2 D C2 E EAc | e6- e2- e/ z/ G3 | A6 z6 | z12 |] %17
w: ||||||
V:2
 z3 .C3 z3 | x9 | x9 | x9 | z3 .C3 z3 | x9 | x9 |[M:12/8] x12 | z2 E E2 E E2 G A2 c | z3 E6 z3 | %10
 z2 G G2 G G2 E G2 E | E2 E E2 E E2 B d2 d | F6- F3/2 z/ z z3 | E6- E3/2 z/ z z3 | %14
 z2 A A2 A G2 E E2 E | E2 E F2 F [EA]6- | [EA]3 z3 z6 |] %17
V:3
 E,3 A,2 A, A,3 | G,3 A,2 A, A,3 | D3 C2 B, B,3 | B,3 A,6 | A,3 A,2 A, A,3 | G,3 A,2 A, A,3 | %6
 D3 C2 B, B,3 |[M:12/8] B,3 A,6 z3 | z2 G, G,2 G, .G,3 z3 | z2 A, A,2 G, .A,3 z3 | %10
 z2 B, B,2 B, B,2 B, B,2 G, | A,2 A, A,2 A, .A,3 z3 | z2 A, A,2 A, .A,3 z3 | z2 A, A,2 G, .A,3 z3 | %14
 z2[K:treble] C C2 C B,2 G, B,2 D | C2 C D2 D C6- | C3 z3 z6 |] %17
V:4
 z3 A,,2 A,, A,,3 | E,3 z2 C, D,3 | D,3 E,2 E, E,3 | E,3 A,,6 | A,,3 A,,2 A,, A,,3 | %5
 E,3 z2 C, D,3 | B,,3 E,2 E, E,3 |[M:12/8] E,3 A,,6 z3 | z2 E, E,2 E, .E,3 z3 | %9
 z2 C, C,2 B,, .G,,3 z3 | z2 E, E,2 E, E,2 E, E,2 E, | z12 | z2 D, D,2 D, .D,3 z3 | %13
 z2 C, C,2 B,, .A,,3 z3 | z2 E, E,2 E, E,3 E,3 | A,,12- | A,,3 z3 z6 |] %17

